X:2865
L:1/8
M:4/4
K:Cmin
 G,CE |"Cm" G4"G7" E3 D |"Cm" D2 C2 z CEG |"Fm" c4 A3 G |"Fm" G2 F2 z FGA |"G7" G3 D G3 F | 
"Cm" F2 E2 z DEF |"G7" G2 G2 G2 G2 |1"G7" G>F EF G :|

